X:53232
F:http://www.vwml.org/record/HAM/5/32/32%%VWML:HAM-5-32-32-0
T:Poor Sally sits a-weeping
S:Mrs Marina Russell, Upwey coll. HED Hammond
O:England
A:Dorset
N:Transcribed from HAM-02-241.gif
F:HAM-05-32-32.abc
Z:EFDSS;PJHeadford
M:3/4
L:1/4
Q:1/4=100
K:Bb
E|FD/G/ =A/ B/|cce|dcB|(cB)G|FF/G/ _A/ B/|cce|dcB|c2c| fc/d/e|dBf&xxc/d/|eG>A&eG>x|B/A/FE|FFf|feG|B/=A/F"_or"F&xx=E|F2||
W:Transcribed from HAM-02-241.gif
W:The MIDI file HAM-05-32-32.mid has 2 verses, the 2nd using alternative notes.
W:The words below are Mrs Hammond's words from HAM-01-461.gif - Hammond's field notes W:
W:One night in sweet slumber I dreamed that I see} rept
W:My own dearest jewel, my own dearest jewel, my own dt. jl.
W:Come a-smiling to me
W:
W:But when I awoke & found it not so } rept
W:Mine eyes were like fountains, &c
W:Where the water doth flow.
W:
W:I'll set my love a-sailing for France & for Spain}
W:A-ship-board I'll enter, my sweet life to venture
W:And never to return to old England again.
W:
